wp-content/themes/ecoexplore/dist/images/icon-instagram_80b5ad10.svg

<svg xmlns="http://www.w3.org/2000/svg" width="14" height="14" viewBox="0 0 14 14">
  <g fill="none" fill-rule="evenodd">
    <rect width="14" height="14"/>
    <path fill="#000349" d="M12.3125,11.71875 L12.3125,5.9375 L11.09375,5.9375 C11.2187506,6.31250188 11.28125,6.70833125 11.28125,7.125 C11.28125,7.87500375 11.0937519,8.56249688 10.71875,9.1875 C10.3020812,9.83333656 9.78125312,10.3333316 9.15625,10.6875 C8.51041344,11.0625019 7.79167062,11.25 7,11.25 C5.8333275,11.25 4.8333375,10.8437541 4,10.03125 C3.1666625,9.21874594 2.75,8.25000563 2.75,7.125 C2.75,6.70833125 2.81249937,6.31250188 2.9375,5.9375 L1.65625,5.9375 L1.65625,11.71875 C1.65625,11.8854175 1.70833281,12.0208328 1.8125,12.125 C1.95833406,12.2291672 2.09374937,12.28125 2.21875,12.28125 L11.75,12.28125 C11.8750006,12.28125 12.0104159,12.2291672 12.15625,12.125 C12.2604172,12.0208328 12.3125,11.8854175 12.3125,11.71875 Z M9.78125,6.96875 C9.78125,6.21874625 9.51041937,5.5937525 8.96875,5.09375 C8.42708062,4.57291406 7.77083719,4.3125 7,4.3125 C6.22916281,4.3125 5.58333594,4.57291406 5.0625,5.09375 C4.52083063,5.5937525 4.25,6.21874625 4.25,6.96875 C4.25,7.69792031 4.52083063,8.33333063 5.0625,8.875 C5.62500281,9.39583594 6.27082969,9.65625 7,9.65625 C7.72917031,9.65625 8.38541375,9.39583594 8.96875,8.875 C9.51041937,8.33333063 9.78125,7.69792031 9.78125,6.96875 Z M12.3125,3.75 L12.3125,2.28125 C12.3125,2.1145825 12.2500006,1.96875063 12.125,1.84375 C11.9999994,1.71874937 11.8541675,1.65625 11.6875,1.65625 L10.125,1.65625 C9.9583325,1.65625 9.81250063,1.71874937 9.6875,1.84375 C9.58333281,1.94791719 9.53125,2.09374906 9.53125,2.28125 L9.53125,3.75 C9.53125,3.93750094 9.58333281,4.08333281 9.6875,4.1875 C9.81250063,4.31250063 9.9583325,4.375 10.125,4.375 L11.6875,4.375 C11.8541675,4.375 11.9999994,4.31250063 12.125,4.1875 C12.2500006,4.06249937 12.3125,3.9166675 12.3125,3.75 Z M13.84375,1.90625 L13.84375,12.09375 C13.84375,12.5937525 13.677085,13.010415 13.34375,13.34375 C13.010415,13.677085 12.5937525,13.84375 12.09375,13.84375 L1.90625,13.84375 C1.4062475,13.84375 0.989585,13.677085 0.65625,13.34375 C0.322915,13.010415 0.15625,12.5937525 0.15625,12.09375 L0.15625,1.90625 C0.15625,1.4062475 0.322915,0.989585 0.65625,0.65625 C0.989585,0.322915 1.4062475,0.15625 1.90625,0.15625 L12.09375,0.15625 C12.5937525,0.15625 13.010415,0.322915 13.34375,0.65625 C13.677085,0.989585 13.84375,1.4062475 13.84375,1.90625 Z"/>
  </g>
</svg>

<svg xmlns="http://www.w3.org/2000/svg" width="14" height="14" viewBox="0 0 14 14"><g fill="none" fill-rule="evenodd"><path d="M0 0h14v14H0z"/><path fill="#000349" d="M12.313 11.719V5.938h-1.22c.126.375.188.77.188 1.187 0 .75-.187 1.437-.562 2.063a4.474 4.474 0 0 1-1.563 1.5A4.216 4.216 0 0 1 7 11.25c-1.167 0-2.167-.406-3-1.219-.833-.812-1.25-1.781-1.25-2.906 0-.417.062-.812.188-1.188H1.655v5.782a.55.55 0 0 0 .157.406c.145.104.28.156.406.156h9.531c.125 0 .26-.052.406-.156a.55.55 0 0 0 .156-.406zM9.78 6.969c0-.75-.27-1.375-.812-1.875C8.427 4.573 7.77 4.312 7 4.312s-1.417.26-1.938.782c-.541.5-.812 1.125-.812 1.875 0 .729.27 1.364.813 1.906.562.52 1.208.781 1.937.781.73 0 1.385-.26 1.969-.781.541-.542.812-1.177.812-1.906zm2.531-3.219V2.281a.6.6 0 0 0-.187-.437.6.6 0 0 0-.438-.188h-1.562a.6.6 0 0 0-.438.188c-.104.104-.156.25-.156.437V3.75c0 .188.052.333.156.438a.6.6 0 0 0 .438.187h1.563a.6.6 0 0 0 .437-.188.6.6 0 0 0 .188-.437zm1.532-1.844v10.188c0 .5-.167.916-.5 1.25-.334.333-.75.5-1.25.5H1.906c-.5 0-.916-.167-1.25-.5-.333-.334-.5-.75-.5-1.25V1.906c0-.5.167-.916.5-1.25.334-.333.75-.5 1.25-.5h10.188c.5 0 .916.167 1.25.5.333.334.5.75.5 1.25z"/></g></svg>
